artwork/resources/intui/icons/shell/toolbar/attach-debugger@20x20_dark.svg

<svg width="20" height="20" viewBox="0 0 20 20" fill="none" xmlns="http://www.w3.org/2000/svg">
<path d="M9 4.74997H13.875C14.0131 4.74997 14.125 4.8619 14.125 4.99997V9.99997V15C14.125 15.138 14.0131 15.25 13.875 15.25H9C7.20507 15.25 5.75 13.7949 5.75 12V7.99997C5.75 6.20504 7.20507 4.74997 9 4.74997Z" stroke="#CED0D6" stroke-width="1.5"/>
<path d="M2 7.74997H5.75V12.25H2C1.86193 12.25 1.75 12.138 1.75 12V7.99997C1.75 7.8619 1.86193 7.74997 2 7.74997Z" stroke="#CED0D6" stroke-width="1.5"/>
<path d="M18.5625 8.49997C18.9767 8.49997 19.3125 8.16418 19.3125 7.74997C19.3125 7.33576 18.9767 6.99997 18.5625 6.99997V8.49997ZM14.1875 8.49997H18.5625V6.99997H14.1875V8.49997Z" fill="#CED0D6"/>
<path d="M18.5625 13.0625C18.9767 13.0625 19.3125 12.7267 19.3125 12.3125C19.3125 11.8983 18.9767 11.5625 18.5625 11.5625V13.0625ZM14.1875 13.0625H18.5625V11.5625H14.1875V13.0625Z" fill="#CED0D6"/>
</svg>

<svg width="20" height="20" viewBox="0 0 20 20" fill="none" xmlns="http://www.w3.org/2000/svg"><path d="M5.75 8A3.25 3.25 0 0 1 9 4.75h4.875a.25.25 0 0 1 .25.25v10a.25.25 0 0 1-.25.25H9A3.25 3.25 0 0 1 5.75 12V8zM1.75 8A.25.25 0 0 1 2 7.75h3.75v4.5H2a.25.25 0 0 1-.25-.25V8z" stroke="#CED0D6" stroke-width="1.5"/><path d="M18.563 8.5a.75.75 0 0 0 0-1.5v1.5zm-4.375 0h4.374V7h-4.375v1.5zM18.563 13.063a.75.75 0 0 0 0-1.5v1.5zm-4.375 0h4.374v-1.5h-4.375v1.5z" fill="#CED0D6"/></svg>
